_includes/icons/color-price-tag.svg

<svg fill="#666" height="50" viewBox="0 0 48 48" width="50" xmlns="http://www.w3.org/2000/svg"><path d="m25 5-18.800781 18.800781c-1.597656 1.597657-1.597656 4.097657 0 5.699219l12.300781 12.300781c1.601563 1.597657 4.101563 1.597657 5.699219 0l18.800781-18.800781v-14c0-2.199219-1.800781-4-4-4zm12 8c-1.101562 0-2-.898437-2-2 0-1.101562.898438-2 2-2 1.101563 0 2 .898438 2 2 0 1.101563-.898437 2-2 2" fill="#ffc107"/></svg>

<svg xmlns="http://www.w3.org/2000/svg" viewBox="0 0 48 48" width="50" height="50" fill="#666"><path d="M 25 5 L 6.199219 23.800781 C 4.601563 25.398438 4.601563 27.898438 6.199219 29.5 L 18.5 41.800781 C 20.101563 43.398438 22.601563 43.398438 24.199219 41.800781 L 43 23 L 43 9 C 43 6.800781 41.199219 5 39 5 Z M 37 13 C 35.898438 13 35 12.101563 35 11 C 35 9.898438 35.898438 9 37 9 C 38.101563 9 39 9.898438 39 11 C 39 12.101563 38.101563 13 37 13" fill="#ffc107"/></svg>
